X: 1
T: SIR ROGER DE COVERLY -- JIG
B: Ryan's Mammoth Collection of Fiddle Tunes
R: slipjig
M: 9/8
L: 1/8
Z: Contributed 20000824202335 by John Chambers John.Chambers:weema.com
K: Glydian
 vGAG (G2B) (dB).G | E2A ABG FED | GFG BGB .d(ef) | g2G FAG FED |
| GAG (G2B) (dB).G | E2A ABG FED | GFG BGB .d(ef) | g2G FAG FED |]
|: vdBd "4"ece dBG | EFG ABG FED | d3 e3 .d(ef) | g2G FAG FED |
|   dBd    ece dBG | EFG ABG FED | d3 e3 .d(ef) | g2G FAG FED :|
